X:249
T:stenson's.tef
C:
N:Transcribed by Michael Abraham
R:bluegrass
L:1/8
Q:1/4=240
M:4/4
K:C
"D"D2 ^FD E2 F2 | "D"D2 ^FD ED B,2 | "D"D2 ^FD E2 F2 | "G"G2 ^F2 "A"E4 | "D"D2 ^FD E2 F2 | 
"D"D2 ^FD ED EF | "G"G4 "D"^F4 | "A"E2 E^F GF E2 | "D"D2 ^FD E2 F2 | "D"D2 ^FD ED B,2 | 
"D"D2 ^FD E2 F2 | "G"G2 ^F2 "A"E2 E=F | "D"^FD F=F ED EF | "D"^FA B^c d2 Ad | 
"G"gd Ad "D"^fd Ad | "A"ed Ad ^fe a^c' | "D"d'a ed' ae d'a | ea e^f ef d2 | "F#m"d'a ed'4z | 
ea e^f ef d2 | "G"d'a ed' ae d'a | ea e^f ef d2 | "G"gd Ad "D"^fd Ad | "A"ed Ad ^fe a^c' | 
"D"d'a ed' ae d'a | ed' ae d'a ea | "F#m"d'a ed' ae d'a | ed' ae d'a ea | "G"d'a ed' ae d'a | 
ed' ae d'a ed | "G"gd Ad "D"^fd Ad | "A"ed AB AG ^FE | D8 | 


